source/assets/images/icons/list.svg

<svg fill="none" height="80" viewBox="0 0 80 80" width="80" xmlns="http://www.w3.org/2000/svg"><g fill="#000"><path d="m64.8813 0h-38.7042c-.0149 0-.0294.00172786-.0443.00224622-.0145.00051836-.0286.0012095-.0432.00207343-.0552.00362851-.1098.00984885-.1631.02021595-.001.0001728-.0019.0001728-.0029.0005184-.0575.0114039-.1132.027473-.1678.0461339-.0098.0034557-.0197.0070842-.0293.0108855-.0514.0190066-.1015.0406046-.1495.0656586-.0031.001728-.0064.002938-.0095.004665-.0505.026955-.0983.057711-.1445.090886-.0105.00743-.0207.015378-.0311.023153-.0458.034903-.09.071879-.1306.112311-.0002.000173-.0005.000346-.0007.000519l-13.8229 13.822934c-.0001.0001-.0003.0003-.0005.0005-.0406.0408-.0776.085-.1125.1308-.0078.0103-.0154.0205-.023.0309-.0332.0461-.0641.094-.091.1443-.0017.0034-.0033.0069-.005.0103-.0249.0477-.0463.0973-.0653.1483-.0038.0102-.0076.0202-.0113.0306-.0186.0541-.0344.1094-.0458.1665-.0004.0021-.0006.0044-.0012.0064-.01.0521-.016.1053-.0198.1592-.0011.0152-.0017.0302-.0022.0454 0 .0147-.0018.0289-.0018.0434v60.8207c0 2.239 1.8215 4.0605 4.0605 4.0605h49.7625c2.2389 0 4.0605-1.8215 4.0605-4.0605v-71.87902c0-2.23897-1.8216-4.06048-4.0605-4.06048zm-40 4.42436v7.92984c0 .8099-.6589 1.4687-1.4688 1.4687h-7.9298zm41.4686 71.51514c0 .8099-.6588 1.4687-1.4686 1.4687h-49.7625c-.8099 0-1.4687-.6588-1.4687-1.4687v-59.5248h9.7624c2.2391 0 4.0605-1.8215 4.0605-4.0605v-9.76241h37.4083c.8098 0 1.4686.65884 1.4686 1.46869z"/><path d="m23.4126 21.9438h33.1749c.7157 0 1.2959-.58 1.2959-1.2958 0-.7159-.5802-1.2959-1.2959-1.2959h-33.1749c-.7157 0-1.2959.58-1.2959 1.2959 0 .7158.5802 1.2958 1.2959 1.2958z"/><path d="m23.4126 28.8554h33.1749c.7157 0 1.2959-.58 1.2959-1.2959 0-.7158-.5802-1.296-1.2959-1.296h-33.1749c-.7157 0-1.2959.5802-1.2959 1.296 0 .7159.5802 1.2959 1.2959 1.2959z"/><path d="m23.4126 35.7667h33.1749c.7157 0 1.2959-.58 1.2959-1.2959 0-.7158-.5802-1.2959-1.2959-1.2959h-33.1749c-.7157 0-1.2959.5801-1.2959 1.2959 0 .7159.5802 1.2959 1.2959 1.2959z"/><path d="m23.4126 42.6782h33.1749c.7157 0 1.2959-.58 1.2959-1.2959 0-.7158-.5802-1.2959-1.2959-1.2959h-33.1749c-.7157 0-1.2959.5801-1.2959 1.2959 0 .7159.5802 1.2959 1.2959 1.2959z"/><path d="m23.4126 49.5896h33.1749c.7157 0 1.2959-.58 1.2959-1.2959s-.5802-1.2959-1.2959-1.2959h-33.1749c-.7157 0-1.2959.58-1.2959 1.2959s.5802 1.2959 1.2959 1.2959z"/><path d="m40 56.6738h-16.5874c-.7157 0-1.2959.5801-1.2959 1.2959 0 .7159.5802 1.2959 1.2959 1.2959h16.5874c.7157 0 1.2959-.58 1.2959-1.2959 0-.7158-.5802-1.2959-1.2959-1.2959z"/><path d="m40 63.5853h-16.5874c-.7157 0-1.2959.5801-1.2959 1.2959 0 .7159.5802 1.2959 1.2959 1.2959h16.5874c.7157 0 1.2959-.58 1.2959-1.2959 0-.7158-.5802-1.2959-1.2959-1.2959z"/><path d="m51.7495 59.4385c-1.0956 0-1.987.8914-1.987 1.987 0 1.0957.8914 1.9871 1.987 1.9871 1.0957 0 1.987-.8914 1.987-1.9871 0-1.0956-.8913-1.987-1.987-1.987z"/><path d="m51.7494 53.9093c-4.1444 0-7.5162 3.3718-7.5162 7.5162s3.3718 7.5162 7.5162 7.5162c4.1445 0 7.5162-3.3718 7.5162-7.5162s-3.3717-7.5162-7.5162-7.5162zm0 12.4406c-2.7153 0-4.9244-2.2091-4.9244-4.9244s2.2091-4.9244 4.9244-4.9244 4.9244 2.2091 4.9244 4.9244-2.2091 4.9244-4.9244 4.9244z"/></g></svg>

<svg width="80" height="80" viewBox="0 0 80 80" fill="none" xmlns="http://www.w3.org/2000/svg">
<path d="M64.8813 0H26.1771C26.1622 0 26.1477 0.00172786 26.1328 0.00224622C26.1183 0.00276458 26.1042 0.00345572 26.0896 0.00431965C26.0344 0.00794816 25.9798 0.0141685 25.9265 0.0245356C25.9255 0.0247084 25.9246 0.0247084 25.9236 0.025054C25.8661 0.0364579 25.8104 0.052527 25.7558 0.0711879C25.746 0.0746436 25.7361 0.0782721 25.7265 0.0820734C25.6751 0.10108 25.625 0.122678 25.577 0.147732C25.5739 0.14946 25.5706 0.15067 25.5675 0.152397C25.517 0.179352 25.4692 0.210108 25.423 0.243283C25.4125 0.250713 25.4023 0.258661 25.3919 0.266436C25.3461 0.301339 25.3019 0.338315 25.2613 0.378747C25.2611 0.37892 25.2608 0.379093 25.2606 0.379266L11.4377 14.2022C11.4376 14.2023 11.4374 14.2025 11.4372 14.2027C11.3966 14.2435 11.3596 14.2877 11.3247 14.3335C11.3169 14.3438 11.3093 14.354 11.3017 14.3644C11.2685 14.4105 11.2376 14.4584 11.2107 14.5087C11.209 14.5121 11.2074 14.5156 11.2057 14.519C11.1808 14.5667 11.1594 14.6163 11.1404 14.6673C11.1366 14.6775 11.1328 14.6875 11.1291 14.6979C11.1105 14.752 11.0947 14.8073 11.0833 14.8644C11.0829 14.8665 11.0827 14.8688 11.0821 14.8708C11.0721 14.9229 11.0661 14.9761 11.0623 15.03C11.0612 15.0452 11.0606 15.0602 11.0601 15.0754C11.0601 15.0901 11.0583 15.1043 11.0583 15.1188V75.9395C11.0583 78.1785 12.8798 80 15.1188 80H64.8813C67.1202 80 68.9418 78.1785 68.9418 75.9395V4.06048C68.9418 1.82151 67.1202 0 64.8813 0ZM24.8813 4.42436V12.3542C24.8813 13.1641 24.2224 13.8229 23.4125 13.8229H15.4827L24.8813 4.42436ZM66.3499 75.9395C66.3499 76.7494 65.6911 77.4082 64.8813 77.4082H15.1188C14.3089 77.4082 13.6501 76.7494 13.6501 75.9395V16.4147H23.4125C25.6516 16.4147 27.473 14.5932 27.473 12.3542V2.59179H64.8813C65.6911 2.59179 66.3499 3.25063 66.3499 4.06048V75.9395Z" fill="black"/>
<path d="M23.4126 21.9438H56.5875C57.3032 21.9438 57.8834 21.3638 57.8834 20.648C57.8834 19.9321 57.3032 19.3521 56.5875 19.3521H23.4126C22.6969 19.3521 22.1167 19.9321 22.1167 20.648C22.1167 21.3638 22.6969 21.9438 23.4126 21.9438Z" fill="black"/>
<path d="M23.4126 28.8554H56.5875C57.3032 28.8554 57.8834 28.2754 57.8834 27.5595C57.8834 26.8437 57.3032 26.2635 56.5875 26.2635H23.4126C22.6969 26.2635 22.1167 26.8437 22.1167 27.5595C22.1167 28.2754 22.6969 28.8554 23.4126 28.8554Z" fill="black"/>
<path d="M23.4126 35.7667H56.5875C57.3032 35.7667 57.8834 35.1867 57.8834 34.4708C57.8834 33.755 57.3032 33.1749 56.5875 33.1749H23.4126C22.6969 33.1749 22.1167 33.755 22.1167 34.4708C22.1167 35.1867 22.6969 35.7667 23.4126 35.7667Z" fill="black"/>
<path d="M23.4126 42.6782H56.5875C57.3032 42.6782 57.8834 42.0982 57.8834 41.3823C57.8834 40.6665 57.3032 40.0864 56.5875 40.0864H23.4126C22.6969 40.0864 22.1167 40.6665 22.1167 41.3823C22.1167 42.0982 22.6969 42.6782 23.4126 42.6782Z" fill="black"/>
<path d="M23.4126 49.5896H56.5875C57.3032 49.5896 57.8834 49.0096 57.8834 48.2937C57.8834 47.5778 57.3032 46.9978 56.5875 46.9978H23.4126C22.6969 46.9978 22.1167 47.5778 22.1167 48.2937C22.1167 49.0096 22.6969 49.5896 23.4126 49.5896Z" fill="black"/>
<path d="M40 56.6738H23.4126C22.6969 56.6738 22.1167 57.2539 22.1167 57.9697C22.1167 58.6856 22.6969 59.2656 23.4126 59.2656H40C40.7157 59.2656 41.2959 58.6856 41.2959 57.9697C41.2959 57.2539 40.7157 56.6738 40 56.6738Z" fill="black"/>
<path d="M40 63.5853H23.4126C22.6969 63.5853 22.1167 64.1654 22.1167 64.8812C22.1167 65.5971 22.6969 66.1771 23.4126 66.1771H40C40.7157 66.1771 41.2959 65.5971 41.2959 64.8812C41.2959 64.1654 40.7157 63.5853 40 63.5853Z" fill="black"/>
<path d="M51.7495 59.4385C50.6539 59.4385 49.7625 60.3299 49.7625 61.4255C49.7625 62.5212 50.6539 63.4126 51.7495 63.4126C52.8452 63.4126 53.7365 62.5212 53.7365 61.4255C53.7365 60.3299 52.8452 59.4385 51.7495 59.4385Z" fill="black"/>
<path d="M51.7494 53.9093C47.605 53.9093 44.2332 57.2811 44.2332 61.4255C44.2332 65.5699 47.605 68.9417 51.7494 68.9417C55.8939 68.9417 59.2656 65.5699 59.2656 61.4255C59.2656 57.2811 55.8939 53.9093 51.7494 53.9093ZM51.7494 66.3499C49.0341 66.3499 46.825 64.1408 46.825 61.4255C46.825 58.7102 49.0341 56.5011 51.7494 56.5011C54.4647 56.5011 56.6738 58.7102 56.6738 61.4255C56.6738 64.1408 54.4647 66.3499 51.7494 66.3499Z" fill="black"/>
</svg>
